X: 20445
T: John Joe Harnett's
R: slide
M: 12/8
K: Adorian
|:ABA e2 d d2 B G2 B|ABA e2 A def g3|
ABA e2 d d2 B G3|efg e2 d B2 A A3:|
|:e2 d e2 f g2 f e2 d|Bcd e2 f g3 g2 a|
bag agf g2 f e2 d|efg e2 d B2 A A3:|

